Newaita-dark/actions/32/view-list-details.svg

<svg height="32" viewBox="0 0 32 32" width="32" xmlns="http://www.w3.org/2000/svg"><g fill="#e0e0e0"><path d="m17.859375 5.542969h10.585937c.367188 0 .660157.296875.660157.660156v1.324219c0 .363281-.292969.660156-.660157.660156h-10.585937c-.363281 0-.660156-.296875-.660156-.660156v-1.324219c0-.363281.296875-.660156.660156-.660156zm0 0"/><path d="m17.859375 24.066406h10.585937c.367188 0 .660157.292969.660157.660156v1.324219c0 .363281-.292969.660157-.660157.660157h-10.585937c-.363281 0-.660156-.296876-.660156-.660157v-1.324219c0-.367187.296875-.660156.660156-.660156zm0 0"/><path d="m17.859375 14.804688h10.585937c.367188 0 .660157.296874.660157.660156v1.324218c0 .363282-.292969.660157-.660157.660157h-10.585937c-.363281 0-.660156-.296875-.660156-.660157v-1.324218c0-.363282.296875-.660156.660156-.660156zm0 0"/><path d="m5.292969 2.894531c-1.464844 0-2.648438 1.183594-2.648438 2.648438v9.261719h11.910157v-11.910157zm1.320312 2.648438h5.292969v6.613281h-6.613281v-5.289062c0-.734376.589843-1.324219 1.320312-1.324219zm0 0"/><path d="m5.292969 29.355469c-1.464844 0-2.648438-1.179688-2.648438-2.644531v-9.261719h11.910157v11.90625zm1.320312-2.644531h5.292969v-6.617188h-6.613281v5.292969c0 .734375.589843 1.324219 1.320312 1.324219zm0 0"/></g></svg>

<svg xmlns="http://www.w3.org/2000/svg" xmlns:xlink="http://www.w3.org/1999/xlink" width="32px" height="32px" viewBox="0 0 32 32" version="1.1">
<g id="surface1">
     <defs>
  <style id="current-color-scheme" type="text/css">
   .ColorScheme-Text { color:#eeeeee; } .ColorScheme-Highlight { color:#424242; }
  </style>
 </defs>
<path style="fill:currentColor" class="ColorScheme-Text" d="M 17.859375 5.542969 L 28.445312 5.542969 C 28.8125 5.542969 29.105469 5.839844 29.105469 6.203125 L 29.105469 7.527344 C 29.105469 7.890625 28.8125 8.1875 28.445312 8.1875 L 17.859375 8.1875 C 17.496094 8.1875 17.199219 7.890625 17.199219 7.527344 L 17.199219 6.203125 C 17.199219 5.839844 17.496094 5.542969 17.859375 5.542969 Z M 17.859375 5.542969 "/>
     <defs>
  <style id="current-color-scheme" type="text/css">
   .ColorScheme-Text { color:#eeeeee; } .ColorScheme-Highlight { color:#424242; }
  </style>
 </defs>
<path style="fill:currentColor" class="ColorScheme-Text" d="M 17.859375 24.066406 L 28.445312 24.066406 C 28.8125 24.066406 29.105469 24.359375 29.105469 24.726562 L 29.105469 26.050781 C 29.105469 26.414062 28.8125 26.710938 28.445312 26.710938 L 17.859375 26.710938 C 17.496094 26.710938 17.199219 26.414062 17.199219 26.050781 L 17.199219 24.726562 C 17.199219 24.359375 17.496094 24.066406 17.859375 24.066406 Z M 17.859375 24.066406 "/>
     <defs>
  <style id="current-color-scheme" type="text/css">
   .ColorScheme-Text { color:#eeeeee; } .ColorScheme-Highlight { color:#424242; }
  </style>
 </defs>
<path style="fill:currentColor" class="ColorScheme-Text" d="M 17.859375 14.804688 L 28.445312 14.804688 C 28.8125 14.804688 29.105469 15.101562 29.105469 15.464844 L 29.105469 16.789062 C 29.105469 17.152344 28.8125 17.449219 28.445312 17.449219 L 17.859375 17.449219 C 17.496094 17.449219 17.199219 17.152344 17.199219 16.789062 L 17.199219 15.464844 C 17.199219 15.101562 17.496094 14.804688 17.859375 14.804688 Z M 17.859375 14.804688 "/>
     <defs>
  <style id="current-color-scheme" type="text/css">
   .ColorScheme-Text { color:#eeeeee; } .ColorScheme-Highlight { color:#424242; }
  </style>
 </defs>
<path style="fill:currentColor" class="ColorScheme-Text" d="M 5.292969 2.894531 C 3.828125 2.894531 2.644531 4.078125 2.644531 5.542969 L 2.644531 14.804688 L 14.554688 14.804688 L 14.554688 2.894531 Z M 6.613281 5.542969 L 11.90625 5.542969 L 11.90625 12.15625 L 5.292969 12.15625 L 5.292969 6.867188 C 5.292969 6.132812 5.882812 5.542969 6.613281 5.542969 Z M 6.613281 5.542969 "/>
     <defs>
  <style id="current-color-scheme" type="text/css">
   .ColorScheme-Text { color:#eeeeee; } .ColorScheme-Highlight { color:#424242; }
  </style>
 </defs>
<path style="fill:currentColor" class="ColorScheme-Text" d="M 5.292969 29.355469 C 3.828125 29.355469 2.644531 28.175781 2.644531 26.710938 L 2.644531 17.449219 L 14.554688 17.449219 L 14.554688 29.355469 Z M 6.613281 26.710938 L 11.90625 26.710938 L 11.90625 20.09375 L 5.292969 20.09375 L 5.292969 25.386719 C 5.292969 26.121094 5.882812 26.710938 6.613281 26.710938 Z M 6.613281 26.710938 "/>
</g>
</svg>
